X:312
T:The Wise Maid
R:reel
M:4/4
L:1/8
K:Dmaj
|:DE|F2FG FEDE|FAAB AFED|d2eg fdec|dBAG BEED|
F2FG FEDE|FAAB AFED|d2eg fdec|dBAG FD:|
|:FA|d2AG FDFA|dfaf gfeg|fedf eAcA|dfed cA A2|
BAGB ADFD|dfaf gfed|Bdce dBAG|FGEF D2:|

